X:1
T:Mrs. Judge
M:4/4
L:1/8
R:Air
K:Em
ED|B,2E2E2G2|FGFED2B2|BAGF AGFE|&quot;tr&quot;D4B,2B,2|
E2F2G2A2|BcBAG2e2|efg2B2g2|&quot;tr&quot;f4e2e2|
edB2B2e2|dedBG2B2|AGFGA2G2|&quot;tr&quot;F4E2D2|
B2G2c2A2|d2B2e2B2|cBAG BAGF|E2EDE2:|
|:GA|B2B2c2B2|BAGFG2d2|efg2B2g2|efg2B2g2|
fga2d2a2|gfge bgbe|dBde BABc|&quot;tr&quot;B6g2|
gfefg2f2|e3fe2dc|B2cBA2G2|G2F2E2D2|
EFGAB2e2|DEFGA2d2|BABG BAGF|E2EDE2:|
M:6/8 
|:EGB EGB|GA/2G/2F/2E/2 FB,B,|DdF EeB|GA/2G/2F/2G/2E3:|
|:Bdg Bdg|g/2f/2e/2d/2e/2f/2 gdB|cc/2B/2A/2G/2 AdD|BeE e2d|
e/2d/2B/2d/2e d/2B/2A/2B/2d|B/2A/2G/2A/2B/2G/2 AFD|E/2F/2GE F/2G/2AF|G/2
A/2BB, E3:|
